icons/bhi_user-o.svg

<?xml version="1.0" encoding="utf-8"?>
<!-- Generator: Adobe Illustrator 18.1.1, SVG Export Plug-In . SVG Version: 6.00 Build 0)  -->
<svg version="1.1" id="Layer_1" xmlns="http://www.w3.org/2000/svg" xmlns:xlink="http://www.w3.org/1999/xlink" x="0px" y="0px"
	 viewBox="0 0 24 24" enable-background="new 0 0 24 24" xml:space="preserve">
<g id="person_4_">
	<path fill="#231F20" d="M12,2.223c2.14,0,3.881,1.741,3.881,3.882c0,2.14-1.741,3.881-3.881,3.881S8.119,8.245,8.119,6.105
		C8.119,3.964,9.86,2.223,12,2.223 M12,16.927c4.843,0,9.763,2.258,9.763,3.881v0.941H2.237v-0.941
		C2.237,19.185,7.157,16.927,12,16.927 M12,0.223c-3.235,0-5.881,2.647-5.881,5.882c0,3.235,2.647,5.881,5.881,5.881
		s5.881-2.647,5.881-5.881C17.881,2.87,15.235,0.223,12,0.223L12,0.223z M12,14.927c-3.97,0-11.763,1.911-11.763,5.881v2.941h23.526
		v-2.941C23.763,16.838,15.97,14.927,12,14.927L12,14.927z"/>
</g>
</svg>

<?xml version="1.0" encoding="UTF-8" standalone="no"?>
<svg width="24px" height="24px" viewBox="0 0 24 24" version="1.1" xmlns="http://www.w3.org/2000/svg" xmlns:xlink="http://www.w3.org/1999/xlink" xmlns:sketch="http://www.bohemiancoding.com/sketch/ns">
    <!-- Generator: Sketch 3.3.2 (12043) - http://www.bohemiancoding.com/sketch -->
    <title>user-o</title>
    <desc>Created with Sketch.</desc>
    <defs></defs>
    <g id="Page-1" stroke="none" stroke-width="1" fill="none" fill-rule="evenodd" sketch:type="MSPage">
        <g id="bhi_user-o" sketch:type="MSLayerGroup" fill="#231F20">
            <g id="person_4_" sketch:type="MSShapeGroup">
                <path d="M12,2.223 C14.14,2.223 15.881,3.964 15.881,6.105 C15.881,8.245 14.14,9.986 12,9.986 C9.86,9.986 8.119,8.245 8.119,6.105 C8.119,3.964 9.86,2.223 12,2.223 L12,2.223 Z M12,16.927 C16.843,16.927 21.763,19.185 21.763,20.808 L21.763,21.749 L2.237,21.749 L2.237,20.808 C2.237,19.185 7.157,16.927 12,16.927 L12,16.927 Z M12,0.223 C8.765,0.223 6.119,2.87 6.119,6.105 C6.119,9.34 8.766,11.986 12,11.986 C15.234,11.986 17.881,9.339 17.881,6.105 C17.881,2.87 15.235,0.223 12,0.223 L12,0.223 L12,0.223 Z M12,14.927 C8.03,14.927 0.237,16.838 0.237,20.808 L0.237,23.749 L23.763,23.749 L23.763,20.808 C23.763,16.838 15.97,14.927 12,14.927 L12,14.927 L12,14.927 Z" id="user-o"></path>
            </g>
        </g>
    </g>
</svg>
